src/render/svg/ftp.svg

<?xml version="1.0" standalone="no"?><!DOCTYPE svg PUBLIC "-//W3C//DTD SVG 1.1//EN"
  "http://www.w3.org/Graphics/SVG/1.1/DTD/svg11.dtd">
<svg t="1700719835425" class="icon" viewBox="0 0 1024 1024" version="1.1" xmlns="http://www.w3.org/2000/svg"
     xmlns:xlink="http://www.w3.org/1999/xlink" width="1024" height="1024">
  <path
    d="M575.829333 211.057778L458.296889 79.644444H79.644444v659.911112h864.711112V211.057778z m-140.856889-79.644445l70.656 79.644445H131.982222v-79.644445zM892.017778 687.217778H131.982222V263.395556h760.035556z"
     ></path>
  <path d="M485.831111 713.272889h52.337778v204.8h-52.337778z"  ></path>
  <path d="M79.644444 838.542222h864.711112v52.337778H79.644444z"  ></path>
  <path
    d="M273.521778 807.822222h456.362666v113.777778H273.521778zM240.298667 591.644444V371.712h150.755555v37.205333H284.444444v52.110223h91.818667v37.205333H284.444444V591.644444zM477.184 591.644444V408.917333H411.875556v-37.205333h174.762666v37.205333h-65.080889V591.644444zM615.310222 591.644444V371.712h71.224889A261.688889 261.688889 0 0 1 739.555556 375.466667a57.685333 57.685333 0 0 1 31.630222 21.504 68.266667 68.266667 0 0 1 12.743111 42.894222 72.021333 72.021333 0 0 1-7.281778 34.133333 61.44 61.44 0 0 1-18.659555 21.731556 64.967111 64.967111 0 0 1-22.755556 10.353778 247.239111 247.239111 0 0 1-45.511111 3.185777H659.911111V591.644444zM659.911111 408.917333v62.464h24.234667a111.616 111.616 0 0 0 35.157333-3.527111 28.103111 28.103111 0 0 0 13.880889-10.808889 29.809778 29.809778 0 0 0 5.006222-17.066666 28.672 28.672 0 0 0-7.054222-19.797334 30.606222 30.606222 0 0 0-17.863111-9.784889 227.555556 227.555556 0 0 0-31.971556-1.479111z"
     ></path>
</svg>

<svg xmlns="http://www.w3.org/2000/svg" width="1024" height="1024" class="icon" viewBox="0 0 1024 1024">
    <path d="M575.82933 211.05778 458.2969 79.64444H79.64444v659.91112h864.71112V211.05778zm-140.85689-79.64445 70.656 79.64445H131.98222v-79.64445zm457.04534 555.80445H131.98222V263.39556h760.03556z"/>
    <path d="M485.83111 713.27289h52.33778v204.8H485.8311z"/>
    <path d="M79.64444 838.54222h864.71112V890.88H79.64444z"/>
    <path d="M273.52178 807.82222h456.36266V921.6H273.52178zm-33.22311-216.17778V371.712h150.75555v37.20533H284.44444v52.11023h91.81867v37.20533h-91.81867v93.41155zm236.88533 0v-182.7271h-65.30844V371.712h174.76266v37.20533h-65.08089v182.72711zm138.12622 0V371.712h71.2249a261.69 261.69 0 0 1 53.02044 3.75467 57.6853 57.6853 0 0 1 31.63022 21.504 68.2667 68.2667 0 0 1 12.7431 42.89422 72.0213 72.0213 0 0 1-7.28177 34.13333 61.44 61.44 0 0 1-18.65955 21.73156 64.967 64.967 0 0 1-22.75556 10.35378 247.24 247.24 0 0 1-45.51111 3.18577H659.9111v82.37511zm44.6009-182.7271v62.464h24.23466a111.616 111.616 0 0 0 35.15733-3.52712 28.103 28.103 0 0 0 13.88089-10.80889 29.8098 29.8098 0 0 0 5.00622-17.06666 28.672 28.672 0 0 0-7.05422-19.79734 30.6062 30.6062 0 0 0-17.86311-9.78489 227.556 227.556 0 0 0-31.97156-1.4791z"/>
</svg>
